X: 4069
T: PARLOUR REEL
R: Reel.
%R: reel
B: James Kerr "Merry Melodies" v.4 p.10 #69
Z: 2016 John Chambers <jc:trillian.mit.edu>
M: C|
L: 1/8
K: D
|:\
(3(uABc) |\
dBcA BGFE | DGFE DGFD (EB,)B,2 |\
DEFA (3(Bcd) (ed) | cABc d2 :|\
(3(ABc) |\
dcBc dfed | cBAB cedc |
dcBc dfed | ceAc d2 (3(ABc) |\
defa gfed | cdef ecAc |\
dfed cedc | BABc d2 |]

%%sep 1 1 500
%%sep 1 1 500

